!!!!SEGMENT: pl-kk--kk-i-270--001_anonim--rorate-caeli.krn
!!!cenid: 17xx:2037
!!!COM: Anonim
!!!COM-rismID:
!!!CDT:
!!!CNT:
!!!OTL: Rorate caeli
!!!PDT:
!!!AGN: Sacred
!!!SMS-siglum: PL-Kk
!!!SMS-shelfmark: Kk.I.270
!!!SMS-shelfwork: 001 W
!!!SMS-variant:
!!!SMS-altvar:
!!!NIFC-rismSourceID: 1001143708
!!!NIFC-islandoraID: pl-kk:4785
!!!URL-pdf-islandora: https://repozytorium.nifc.pl/islandora/object/pl-kk%3A4785/datastream/PDF/view
!!!URL-scan: https://polish.musicsources.pl/pl/lokalizacje/galeria/rekopisy/5888 @EN{Scan on Polish Music Herritage in Open Access Website} @PL{Skany w portalu Dziedzictwo Muzyki Polskiej w otwartym dostępie}
!!!ONB-nifc: UWAGA: utwory w zbiorze: 1. Rorate caeli, 2. Tollite portas, 3. Alleluia Ave Maria
!!!AIN: 1 alto 2 empty 2 tenor
!!!key:
**kern	**text	**kern	**text	**kern	**text	**kern	**text	**kern	**text
*part5	*part5	*part4	*part4	*part3	*part3	*part2	*part2	*part1	*part1
*staff5	*staff5	*staff4	*staff4	*staff3	*staff3	*staff2	*staff2	*staff1	*staff1
*Iempty	*	*Iempty	*	*Itenor	*	*Itenor	*	*Ialto	*
*I"Baſso Ripieno.	*	*I"Baſso	*	*I"Tenore Secundo.	*	*I"Tenore Primo	*	*I"Alto.	*
*I'B rip	*	*I'B.	*	*I'T II	*	*I'T I	*	*I'A	*
*clefF4	*	*clefF4	*	*clefC4	*	*clefC4	*	*clefC3	*
*k[b-]	*	*k[b-]	*	*k[b-]	*	*k[b-]	*	*k[b-]	*
*C:	*	*C:	*	*C:	*	*C:	*	*C:	*
*M2/2	*	*M2/2	*	*M2/2	*	*M2/2	*	*M2/2	*
*met(c|)	*	*met(c|)	*	*met(c|)	*	*met(c|)	*	*met(c|)	*
=1	=1	=1	=1	=1	=1	=1	=1	=1	=1
!LO:TX:a:t=Lente	!	!LO:TX:a:t=Allabreve I	!	!LO:TX:a:t=Allabreve I	!	!LO:TX:a:t=Allabreve I	!	!LO:TX:a:t=Allabreve I	!
1C/	Ro-	1C/	Ro-	00r	.	00r	.	00r	.
=2-	=2	=2	=2	=2	=2	=2	=2	=2	=2
*	*	*2\right	*	*	*	*	*	*	*
2D/	-ra-	2D\	-ra-	.	.	.	.	.	.
*2\right	*	*	*	*	*	*	*	*	*
2G\	-te	2G\	-te	.	.	.	.	.	.
=3	=3	=3	=3	=3	=3	=3	=3	=3	=3
4C/	coe-	4C/	coe-	.	.	.	.	.	.
8D/L	.	8D/L	.	.	.	.	.	.	.
8E/J	.	8E/J	.	.	.	.	.	.	.
[2F\	.	[2F\	.	.	.	.	.	.	.
=4	=4	=4	=4	=4	=4	=4	=4	=4	=4
2F\]	.	2F\]	.	.	.	.	.	.	.
2E\	-li	2E\	-li	.	.	.	.	.	.
=5-	=5	=5	=5	=5	=5	=5	=5	=5	=5
2.D/	de-	2.D\	de-	0r	.	00r	.	00r	.
4D/	-su-	4D\	-su-	.	.	.	.	.	.
=6	=6	=6	=6	=6	=6	=6	=6	=6	=6
(4C/	-per	(4C\	-per	.	.	.	.	.	.
4D/)	.	4D\)	.	.	.	.	.	.	.
(4E/	et	(4E\	et	.	.	.	.	.	.
4F#X/)	.	4F#X\)	.	.	.	.	.	.	.
=7	=7	=7	=7	=7	=7	=7	=7	=7	=7
[<1G\	nu-	1G\	nu-	1G/	Ro-	.	.	.	.
=8	=8	=8	=8	=8	=8	=8	=8	=8	=8
*	*	*	*	*2\right	*	*	*	*	*
4G\]	.	4G\	.	2A\	-ra-	.	.	.	.
8Fn\L	.	8Fn\L	.	.	.	.	.	.	.
8E\J	.	8E\J	.	.	.	.	.	.	.
[2F\	.	2F\	.	2d\	-te	.	.	.	.
=9	=9	=9	=9	=9	=9	=9	=9	=9	=9
2F\]	.	2F\	.	4G\	coe-	00r	.	0r	.
.	.	.	.	8A\L	.	.	.	.	.
.	.	.	.	8Bn\J	.	.	.	.	.
4E\	.	4E\	.	[2c\	.	.	.	.	.
8D\L	-bes	8D\L	-bes	.	.	.	.	.	.
8C\J	.	8C\J	.	.	.	.	.	.	.
!	!	!LO:LB:g=original	!	!	!	!	!	!	!
=10	=10	=10	=10	=10	=10	=10	=10	=10	=10
2D\	plu-	2D\	plu-	2c\]	.	.	.	.	.
2G\	-ant	2G\	-ant	2Bn\	-li	.	.	.	.
=11	=11	=11	=11	=11	=11	=11	=11	=11	=11
4G\	jus-	4G\	jus-	2.A\	de-	.	.	1r	.
8F#X\L	.	8F#X\L	.	.	.	.	.	.	.
8E\J	.	8E\J	.	.	.	.	.	.	.
2F#\	.	2F#\	.	.	.	.	.	.	.
.	.	.	.	4A\	-ſu-	.	.	.	.
=12	=12	=12	=12	=12	=12	=12	=12	=12	=12
2G\	-tum	2G\	-tum	2B-\	-per	.	.	2r	.
*	*	*	*	*	*	*	*	*2\right	*
2E/	Ro-	2E\	Ro-	2c\	et	.	.	2c\	Ro-
=13	=13	=13	=13	=13	=13	=13	=13	=13	=13
1D\	-ra-	1D\	-ra-	4c\	nu-	00r	.	2d\	-ra-
.	.	.	.	8B-X\L	.	.	.	.	.
.	.	.	.	8A\J	.	.	.	.	.
.	.	.	.	[2B-X\	.	.	.	2g\	-te
=14-	=14	=14	=14	=14	=14	=14	=14	=14	=14
!LO:TX:t=P:global:problem=oddech jako rozdzielacz słów, przeważnie na wysokości dźwięku poprzedzającego	!	!	!	!	!	!	!	!	!
2C,/	.	2C/	.	2B-\]	.	.	.	(4c\	coe-
.	.	.	.	.	.	.	.	8d\L	.
.	.	.	.	.	.	.	.	8e\J)	.
2A\	.	2A\	.	(4A\	.	.	.	[2f\	.
.	.	.	.	8G\L	-bes	.	.	.	.
.	.	.	.	8F\J)	.	.	.	.	.
!	!	!	!	!LO:LB:g=original	!	!	!	!	!
=15	=15	=15	=15	=15	=15	=15	=15	=15	=15
2Bn\	.	2Bn\	.	2G\	plu-	.	.	2f\]	.
2c\	-te	2c\	-te	2c\	-ant	.	.	2e\	-li
!LO:LB:g=original	!	!	!	!	!	!	!	!	!
=16	=16	=16	=16	=16	=16	=16	=16	=16	=16
2F\	coe-	(2F\	coe-	4c\	jus-	.	.	2.d\	de-
.	.	.	.	8Bn\L	.	.	.	.	.
.	.	.	.	8A\J	.	.	.	.	.
2G\	.	2G\)	.	2B\	.	.	.	.	.
.	.	.	.	.	.	.	.	4d\	-su-
=17	=17	=17	=17	=17	=17	=17	=17	=17	=17
4C,/	-li	4C/	-li	4c\	.	1r	.	(4c\	-per
4G\	de-	(4G\	de-	4B-\	.	.	.	4d\)	.
4c\	.	4c\)	.	2c\	.	.	.	(4e\	et
4A\	-su-	4A\	-su-	.	.	.	.	4f#X\)	.
!	!	!LO:LB:g=original	!	!	!	!	!	!	!
=18	=18	=18	=18	=18	=18	=18	=18	=18	=18
2G,\	-per	2G\	-per	2B-\	-tum	1G/	Ro-	2g\	nu-
2Bn\	ro-	2Bn\	ro-	2d\	Ro-	.	.	2g\	-bes
!	!	!	!	!	!	!	!	!LO:LB:g=original	!
=19	=19	=19	=19	=19	=19	=19	=19	=19	=19
*	*	*	*	*	*	*2\right	*	*	*
2A\	-ra-	2A\	-ra-	2c\	-ra-	2A\	-ra-	(4g\	plu-
.	.	.	.	.	.	.	.	8fn\L	.
.	.	.	.	.	.	.	.	8e\J)	.
2A\	-te	2A\	-te	2c\	-te	2d\	-te	2f\	.
=20	=20	=20	=20	=20	=20	=20	=20	=20	=20
4B-\	coe-	4B-\	coe-	4Bn\	coe-	4G\	coe-	2f\	.
8A\L	.	8A\L	.	8c\L	.	8A\L	.	.	.
8G\J	.	8G\J	.	8d\J	.	8Bn\J	.	.	.
2E\	.	2E\	.	2e\	.	[2c\	.	(4e\	.
.	.	.	.	.	.	.	.	8d\L	.
.	.	.	.	.	.	.	.	8c\J)	.
=21	=21	=21	=21	=21	=21	=21	=21	=21	=21
2F#X\	.	2F#X\	.	1d\	-li	2c\]	.	2d\	.
2G\	-li	2G\	-li	.	.	2B-\	-li	2g\	-ant
=22	=22	=22	=22	=22	=22	=22	=22	=22	=22
2.C/	de-	2.C/	de-	2.c\	de-	2.A\	de-	4g\	jus-
.	.	.	.	.	.	.	.	8f#X\L	.
.	.	.	.	.	.	.	.	8e\J	.
.	.	.	.	.	.	.	.	2f#X\	.
4D/	-su-	4D/	-su-	4c\	-ſu-	4A\	-su-	.	.
!	!	!	!	!LO:LB:g=original	!	!	!	!	!
=23	=23	=23	=23	=23	=23	=23	=23	=23	=23
2G\	-per	2G\	-per	2Bn\	-per	2B-\	-per	2g\	-tum
2C/	et	2C/	et	2e\	et	2c\	et	2e\	et
=24	=24	=24	=24	=24	=24	=24	=24	=24	=24
2D\	nu-	2D\	nu-	2d\	nu-	4c\	nu-	2fn\	nu-
.	.	.	.	.	.	8B-X\L	.	.	.
.	.	.	.	.	.	8A\J	.	.	.
2G\	-bes	2G\	-bes	2d\	-bes	(2B-X\	-bes	2f\	-bes
!	!	!	!	!	!	!LO:LB:g=original	!	!	!
=25	=25	=25	=25	=25	=25	=25	=25	=25	=25
2E\	plu-	2E\	plu-	4c\	plu-	2B-\)	plu-	4e\	plu-
.	.	.	.	8d\L	.	.	.	8d\L	.
.	.	.	.	8e\J	.	.	.	8c\J	.
4F\	.	4F\	.	[2f\	.	4A\	.	2a\	.
8G\L	.	8G\L	.	.	.	8G\L	.	.	.
8A\J	.	8A\J	.	.	.	8F\J	.	.	.
=26	=26	=26	=26	=26	=26	=26	=26	=26	=26
4Bn\	.	4Bn\	.	2f\]	.	2G\	.	1g\	-ant
8A\L	.	8A\L	.	.	.	.	.	.	.
8G\J	.	8G\J	.	.	.	.	.	.	.
2c\	-ant	2c\	-ant	2e\	-any	2c\	-ant	.	.
!	!	!LO:LB:g=original	!	!	!	!	!	!LO:LB:g=original	!
=27	=27	=27	=27	=27	=27	=27	=27	=27	=27
(2F\	Jus-	(2.F\	Jus-	1d\	Jus-	4c\	jus-	1f\	jus-
.	.	.	.	.	.	8Bn\L	.	.	.
.	.	.	.	.	.	8A\J	.	.	.
2G\)	.	.	.	.	.	2Bn\	.	.	.
.	.	4G\)	.	.	.	.	.	.	.
=28	=28	=28	=28	=28	=28	=28	=28	=28	=28
2C,/	-tum	2C/	-tum	2e\	-tum	2c\	-tum	2e\	-tum
2A\	et	2A\	et	2r	.	2e\	et	2a\	et
=29	=29	=29	=29	=29	=29	=29	=29	=29	=29
2d\	nu-	2d\	nu-	0r	.	2f\	nu-	2a\	nu-
2cn\	-bes	2cn\	-bes	.	.	2e\	-bes	2a\	-bes
=30	=30	=30	=30	=30	=30	=30	=30	=30	=30
2B-X\	plu-	2B-X\	plu-	.	.	1d\	plu-	2a\	plu-
2B-\	-ant	2B-\	-ant	.	.	.	.	2g\	-ant
!LO:LB:g=original	!	!	!	!	!	!	!	!	!
=31	=31	=31	=31	=31	=31	=31	=31	=31	=31
2A\	Jus-	(2A\	Jus-	2r	.	2c#X\	-ant	2a\	jus-
2G#X\	.	2G#X\)	.	2f\	Jus-	[2d\	jus-	2b-X\	.
=32	=32	=32	=32	=32	=32	=32	=32	=32	=32
2A\	.	1A\	.	1e\	.	(2d\]	.	1a\	.
2AA/	.	.	.	.	.	2c#X\)	.	.	.
!	!	!	!	!	!	!LO:LB:g=original	!	!	!
=33	=33	=33	=33	=33	=33	=33	=33	=33	=33
2D,\	-tum	2D\	-tum	2f\	-tum	2d\	-tum	2a\	-tum
2D\	A-	2D\	A-	2d\	a-	2f\	a-	2fn\	a-
!	!	!	!	!LO:LB:g=original	!	!	!	!	!
=34	=34	=34	=34	=34	=34	=34	=34	=34	=34
2E\	-pe-	2E\	-pe-	4d\	-pe-	2.e\	-pe-	2g\	-pe-
.	.	.	.	8c\L	.	.	.	.	.
.	.	.	.	8B-X\J	.	.	.	.	.
2A\	-ri-	2A\	-ri-	2c\	-ri-	.	.	2g\	-ri-
.	.	.	.	.	.	4e\	-ri-	.	.
=35	=35	=35	=35	=35	=35	=35	=35	=35	=35
4D\	-a-	4D\	-a-	2c\	-a-	2d\	-a-	4f\	-a-
8E\L	.	8E\L	.	.	.	.	.	8g\L	.
8F\J	.	8F\J	.	.	.	.	.	8a\J	.
2Gn\	.	2Gn\	.	4B-X\	.	2e\	.	2b-X\	.
.	.	.	.	8A\L	.	.	.	.	.
.	.	.	.	8G\J	.	.	.	.	.
!	!	!LO:LB:g=original	!	!	!	!	!	!LO:LB:g=original	!
=36	=36	=36	=36	=36	=36	=36	=36	=36	=36
2G\	.	2G\	.	4A\	.	2c#X\	.	1a\	-tur
.	.	.	.	8Bn\L	.	.	.	.	.
.	.	.	.	8c#X\J	.	.	.	.	.
2Fn\	-tur	2Fn\	-tur	[2d\	-tur	2d\	-tur	.	.
=37	=37	=37	=37	=37	=37	=37	=37	=37	=37
1E\	ter-	1E\	ter-	2.d\]	ter-	1e\	ter-	1g\	ter-
.	.	.	.	4c#X\	.	.	.	.	.
=38-	=38	=38	=38	=38	=38	=38	=38	=38	=38
1D\,	-ra	1D\	-ra	1d\	-ra	1f\	-ra	2f\	-ra
.	.	.	.	.	.	.	.	2a\	a-
=39	=39	=39	=39	=39	=39	=39	=39	=39	=39
[1A\	A-	[1A\	A-	1e\	A-	1A\	a-	2a\	-pe-
.	.	.	.	.	.	.	.	2cc\	-ri-
=40-	=40	=40	=40	=40	=40	=40	=40	=40	=40
4A\]	.	4A\]	.	2.e\	-pe-	2Bn\	-pe-	[2bn\	-a-
8G\L	-pe-	8G\L	-pe-	.	.	.	.	.	.
8F\J	.	8F\J	.	.	.	.	.	.	.
[<2G\	.	[2G\	.	.	.	2e\	.	2b\]	.
.	.	.	.	4e\	-ri-	.	.	.	.
=41	=41	=41	=41	=41	=41	=41	=41	=41	=41
2G\]	.	2G\]	.	4c#X\	-a-	4A\	.	1a\	.
.	.	.	.	8Bn\L	.	8Bn\L	.	.	.
.	.	.	.	8A\J	.	8c#X\J	.	.	.
4F\	.	4F\	.	2f\	.	[2d\	.	.	.
8E\L	.	8E\L	.	.	.	.	.	.	.
8D\J	.	8D\J	.	.	.	.	.	.	.
!	!	!	!	!LO:LB:g=original	!	!	!	!	!
=42	=42	=42	=42	=42	=42	=42	=42	=42	=42
2E\	.	2E\	.	1e\	.	2d\]	.	2g#X\	.
[<2A\	-ri-	2A\	-ri-	.	.	2cn\	-ri-	2a\	.
!	!	!	!	!	!	!LO:LB:g=original	!	!	!
=43	=43	=43	=43	=43	=43	=43	=43	=43	=43
4A\]	-a-	4A\	-a-	2d\	.	1Bn\	-a-	2bn\	.
!LO:TX:a:t=P:problem=# above	!	!	!	!	!	!	!	!	!
8G#X\L	.	8G#X\L	.	.	.	.	.	.	.
!LO:SIC:s:v=F#	!	!	!	!	!	!	!	!	!
8F\J	.	8F#X\J	.	.	.	.	.	.	.
!LO:TX:a:t=P:problem=# above	!	!	!	!	!	!	!	!	!
2G#X\	.	2G#X\	.	[2e\	.	.	.	2g#X\	.
!	!	!LO:LB:g=original	!	!	!	!	!	!	!
=44	=44	=44	=44	=44	=44	=44	=44	=44	=44
2A\	.	2A\	.	2e\]	.	2c#X\	-tur	2e\	.
2Fn,\	-tur	2Fn\	-tur	2d\	-tur	[2d\	.	2fn\	-tur
!	!	!	!	!	!	!	!	!LO:LB:g=original	!
=45-	=45	=45	=45	=45	=45	=45	=45	=45	=45
(2E\	ter-	(2E\	ter-	1e\	ter-	(2.d\]	ter-	1gn\	ter-
2A\)	.	2A\)	.	.	.	.	.	.	.
.	.	.	.	.	.	4c#X\)	.	.	.
=46-	=46	=46	=46	=46	=46	=46	=46	=46	=46
2D,/	-ra	2D\	-ra	2f\	-ra	2d\	-ra	4f\	-ra
.	.	.	.	.	.	.	.	4a\	et
2d\	et	2d\	et	2d\	et	2fn\	et	[2b-X\	ger-
=47	=47	=47	=47	=47	=47	=47	=47	=47	=47
1cn\	ge-	1cn\	ge-	2e\	ge-	1e\	ge-	2b-X\]	.
.	.	.	.	2cn\	.	.	.	[2a\	.
=48-	=48	=48	=48	=48	=48	=48	=48	=48	=48
1B-X\	.	1B-X\	.	2d\	.	1d\	.	2a\]	.
.	.	.	.	2B-X\	.	.	.	2g\	.
=49-	=49	=49	=49	=49	=49	=49	=49	=49	=49
1A\	.	1A\	.	2c\	.	1c\	.	2g\	.
.	.	.	.	2A\	.	.	.	2f\	.
!LO:LB:g=original	!	!	!	!	!	!	!	!	!
=50	=50	=50	=50	=50	=50	=50	=50	=50	=50
2.G\	-r-	2.G\	-r-	2.B-X\	-r-	2.B-X\	-r-	2.f\	.
4G\	-mi-	4G\	-mi-	4G\	-mi-	4B-\	-mi-	4e\	-mi-
!	!	!	!	!LO:LB:g=original	!	!	!	!	!
=51-	=51	=51	=51	=51	=51	=51	=51	=51	=51
1F\,	-net	1F\	-net	1A\	-net	1A\	-net	1f\	-net
=52	=52	=52	=52	=52	=52	=52	=52	=52	=52
2A\	Sal-	2A\	Sal-	2c\	Sal-	2f\	Sal-	2f\	Sal-
2B-X\	-va-	2B-X\	-va-	2d\	-va	2d\	-va-	2b-X\	-va-
!	!	!	!	!	!	!LO:LB:g=original	!	!LO:LB:g=original	!
=53	=53	=53	=53	=53	=53	=53	=53	=53	=53
0c\	-to-	1c\	-to-	1c\	to-	1e\	-to-	1g\	-to-
=54	=54	=54	=54	=54	=54	=54	=54	=54	=54
.	.	1c\	.	1c\	.	1f\	.	1a\	.
!	!	!LO:LB:g=original	!	!	!	!	!	!	!
=55	=55	=55	=55	=55	=55	=55	=55	=55	=55
0Bn\	.	1Bn\	.	1d\	.	1f\	.	1a\	.
=56	=56	=56	=56	=56	=56	=56	=56	=56	=56
.	.	1B-\	.	1d\	.	1f\	.	1a\	.
=57	=57	=57	=57	=57	=57	=57	=57	=57	=57
1c\	.	1c\	.	1c\	.	1f\	.	1g\	.
=58-	=58	=58	=58	=58	=58	=58	=58	=58	=58
1C/	.	1c\	.	1c\	.	1e\	.	1g\	.
=59-	=59	=59	=59	=59	=59	=59	=59	=59	=59
0F\;	-rem	1F\	-rem	1c\	-rem	1f\	-rem	1a\	-rem
!	!	!LO:LB:g=original	!	!	!	!	!	!LO:LB:g=original	!
=60	=60	=60	=60	=60	=60	=60	=60	=60	=60
!	!	!LO:SIC:o:t:v=dodatkowy takt w basso ripieno	!	!LO:SIC:o:t:v=dodatkowy takt w basso ripieno	!	!LO:SIC:o:t:v=dodatkowy takt w basso ripieno	!	!LO:SIC:o:t:v=dodatkowy takt w basso ripieno	!
.	.	1ryy	.	1ryy	.	1ryy	.	1ryy	.
=61||	=61||	=61||	=61||	=61||	=61||	=61||	=61||	=61||	=61||
2F\	Be-	2F\	be-	2c\	be-	2F/	be-	2a\	be-
4F\	-ne-	4F\	-ne-	4c\	-ne-	(8F/L	-ne-	4a\	-ne-
.	.	.	.	.	.	8G/J)	.	.	.
4F\	-di-	4F\	-di-	4c\	-di-	(8A/L	-di-	4a\	-di-
.	.	.	.	.	.	8Bn/J)	.	.	.
=62	=62	=62	=62	=62	=62	=62	=62	=62	=62
2E\	-xis-	2E\	-xis-	2c\	-xis-	2c\	-xis-	2g\	-xis-
2E\	-ti	2E\	-ti	2c\	-ti	(4d\	-ti	2g\	-ti
.	.	.	.	.	.	4e\)	.	.	.
=63	=63	=63	=63	=63	=63	=63	=63	=63	=63
4.D\	do-	4.D\	do-	4.c\	do-	2f\	Do-	4.f\	do-
8D\	-mi-	8D\	-mi-	8c\	-mi-	.	.	8f\	-mi-
2G\	-ne	2G\	-ne	2Bn\	-ne	4f\	-mi-	2f\	-ne
.	.	.	.	.	.	4f\	-ne	.	.
!	!	!	!	!LO:LB:g=original	!	!LO:LB:g=original	!	!LO:LB:g=original	!
=64	=64	=64	=64	=64	=64	=64	=64	=64	=64
2C/	ter-	2C/	ter-	2c\	ter-	2e\	ter-	(4e\	ter-
.	.	.	.	.	.	.	.	4g\)	.
2F\	-ram	2F\	-ram	2d\	-ram	(4d\	-ram	2f\	-ram
.	.	.	.	.	.	4c\)	.	.	.
=65	=65	=65	=65	=65	=65	=65	=65	=65	=65
!LO:TX:b:t=Vertatur.	!	!LO:TX:b:t=Vertatur.	!	!	!	!	!	!	!
1G\	tu-	1G\	tu-	1d\	tu-	(2c\	tu-	1g\	tu-
.	.	.	.	.	.	2Bn\)	.	.	.
!	!	!LO:PB:g=original	!	!	!	!	!	!	!
=66-	=66	=66	=66	=66	=66	=66	=66	=66	=66
2C,/	-am	2C/	-am	1e\	-am	1c\	-am	1g\	-am
1c\	te-	(2c\	te-	.	.	.	.	.	.
=67-	=67	=67	=67	=67	=67	=67	=67	=67	=67
.	.	2c\)	.	2f\	ter-	1d\	ter-	2f\	te-
1B-X\	.	2B-X\	.	2g\	.	.	.	2d\	.
=68-	=68	=68	=68	=68	=68	=68	=68	=68	=68
.	.	2B-X\	.	2e\	.	1c\	.	2e\	.
1An\	.	[2A\	.	2f\	.	.	.	2c\	.
=69-	=69	=69	=69	=69	=69	=69	=69	=69	=69
.	.	2A\]	.	2d\	.	1B-X\	.	2d\	.
1G\	.	[2G\	.	2e\	.	.	.	2B-X\	.
=70-	=70	=70	=70	=70	=70	=70	=70	=70	=70
.	-r-	2G\]	-r-	2c\	.	1A\	-ram	2cc\	r-
1F\	-ram	[2F\	-ram	2d\	-ram	.	.	2a\	-ram
=71-	=71	=71	=71	=71	=71	=71	=71	=71	=71
.	.	(2F\]	.	2B-X\	tu-	1G/	tu-	2b-X\	tu-
2E\	tu	2E\)	tu	[2c\	.	.	.	2g\	.
=72	=72	=72	=72	=72	=72	=72	=72	=72	=72
2F,\	am	2F\	am	2c\]	-am	2A\	-am	2a\	-am
2E\	be-	2E\	be-	2e\	be-	2c#X\	be-	2a\	be-
=73-	=73	=73	=73	=73	=73	=73	=73	=73	=73
2D/	-ne-	2D\	-ne-	2f\	-ne-	2d\	-ne-	2a\	-ne-
!	!	!	!	!	!	!	!	!LO:TX:b:t=Verte.	!
2C#X/	-di-	2C#X\	-di-	2e\	-di-	2e\	-di-	2a\	-di-
!LO:LB:g=original	!	!LO:LB:g=original	!	!	!	!	!	!LO:PB:g=original	!
=74	=74	=74	=74	=74	=74	=74	=74	=74	=74
1D\	-xis-	1D\	-xis-	1d\	-xis-	1f\	-xis-	1a\	-xis-
=75-	=75	=75	=75	=75	=75	=75	=75	=75	=75
!	!	!	!	!LO:TX:b:t=Verte.	!	!	!	!	!
2AA,/	-ti	2AA/	-ti	1c#X\	-ti	1e\	-ti	1a\	-ti
1A\	ter-	[2A\	ter-	.	.	.	.	.	.
!	!	!	!	!LO:PB:g=original	!	!	!	!	!
=76-	=76	=76	=76	=76	=76	=76	=76	=76	=76
.	.	2A\]	.	1c#X\	ter-	1e\	ter-	[y1a\	te-
2G\	.	2G\	.	.	.	.	.	.	.
!	!	!	!	!	!	!LO:LB:g=original	!	!	!
=77	=77	=77	=77	=77	=77	=77	=77	=77	=77
!	!	!	!	!	!	!	!	!LO:N:xstem:cue:vis=4	!
2F\	.	2F\	.	1d\	-ram	1f\	-ram	2a\]	-r-
2D\	-ram	2D\	-ram	.	.	.	.	2f\	-ram
=78-	=78	=78	=78	=78	=78	=78	=78	=78	=78
1A\	tu-	1A\	tu-	(2d\	tu-	1e\	tu-	(2a\	tu-
.	.	.	.	2c#X\)	.	.	.	2e\)	.
=79-	=79	=79	=79	=79	=79	=79	=79	=79	=79
2D,/	-am	2D\	-am	2d\	-am	2d\	-am	2f\	-am
4d\	a-	4d\	a-	4d\	a-	4f\	a-	4a\	a-
4A\	-ver-	4A\	-ver-	4c#X\	-ver-	4e\	-ver-	4a\	-ver-
=80	=80	=80	=80	=80	=80	=80	=80	=80	=80
(4F\	-tiſ-	4F\	-tiſ-	4f\	-tiſ-	4d\	-tis-	4a\	-tiſ-
4D\	-ti	4D\	-ti	4f\	-ti	4d\	-ti	4a\	-ti
*	*ij	*	*ij	*	*	*	*ij	*	*ij
4F\	a-	4F\	a-	4f\	a-	4d\	a-	4a\	a-
4A\)	-ver-	4A\	-ver-	4c#X\	-ver-	4e\	-ver-	4a\	-ver-
=81-	=81	=81	=81	=81	=81	=81	=81	=81	=81
4d\	-tiſ-	4d\	-tiſ-	4d\	-tiſ-	4f\	-tis-	4a\	-tiſ-
4D/	-ti	4D/	-ti	4d\	-ti	4f\	-ti	4a\	-ti
*	*Xij	*	*Xij	*	*	*	*Xij	*	*Xij
4d,\	.	4d\	.	2f\	cap-	2d\	cap-	2a\	cap-
4cn\	cap-	4cn\	cap-	.	.	.	.	.	.
!	!	!LO:LB:g=original	!	!	!	!	!	!LO:LB:g=original	!
=82	=82	=82	=82	=82	=82	=82	=82	=82	=82
4B-X\	-ti-	(4B-X\	-ti-	4f\	-ti-	4d\	-ti-	4b-X\	-ti-
4G\	-vi-	4G\)	-vi-	4f\	-vi-	4d\	-vi-	4b-\	-vi-
4c\	-ta-	(4c\	-ta-	4e\	-ta-	4cn\	-ta-	4g\	-ta-
4B-X\	.	4B-X\)	.	4e\	-tem	4c\	-tem	4g\	-tem
=83	=83	=83	=83	=83	=83	=83	=83	=83	=83
!	!	!	!	!LO:TX:a:t=P:problem=♮ above	!	!	!	!	!
4A\	-tem	4A\	-tem	1cn\	Ja-	(4c\	Ja-	2.f\	Ja-
4B-X\	.	4B-X\	.	.	.	8B-X\L	.	.	.
.	.	.	.	.	.	8A\J)	.	.	.
!	!	!	!	!	!	!LO:N:vis=-1	!	!	!
4c\	Ja-	4c\	Ja-	.	.	2G/	.	.	.
4C/	.	4C/	.	.	.	.	.	4e\	.
=84	=84	=84	=84	=84	=84	=84	=84	=84	=84
0F\;	-cob	1F\	-cob	1c\	-cob	1A\	-cob.	1f\	-cob
!	!	!	!	!LO:LB:g=original	!	!LO:LB:g=original	!	!	!
=85	=85	=85	=85	=85	=85	=85	=85	=85	=85
!	!	!LO:SIC:o:t:v=dodatkowy takt w basso ripieno	!	!LO:SIC:o:t:v=dodatkowy takt w basso ripieno	!	!LO:SIC:o:t:v=dodatkowy takt w basso ripieno	!	!LO:SIC:o:t:v=dodatkowy takt w basso ripieno	!
.	.	1ryy	.	1ryy	.	1ryy	.	1ryy	.
=86||	=86||	=86||	=86||	=86||	=86||	=86||	=86||	=86||	=86||
*M3/2	*	*M3/2	*	*M3/2	*	*M3/2	*	*M3/2	*
2.F\	Glo-	2.F\	Glo-	2.A\	Glo-	2.f\	Glo-	2.f\	Glo-
4F\	-ri-	4F\	-ri-	4A\	-ri-	4f\	-ri-	4f\	-ri-
2G\	-a	2G\	-a	2B-X\	-a	2e\	-a	2e\	-a
=87	=87	=87	=87	=87	=87	=87	=87	=87	=87
1A\	Pa-	[2A\	Pa-	2A\	Pa-	(2f\	Pa-	1d\	Pa-
.	.	2A\]	.	(4c\	.	4e\	.	.	.
.	.	.	.	4B-X\)	.	4d\)	.	.	.
2F\	-tri	2F\	-tri	2A\	-tri	2c\	-tri	2d\	-tri
=88	=88	=88	=88	=88	=88	=88	=88	=88	=88
2B-X\	et	2B-X\	et	2f\	et	2d\	et	2f\	et
2c\	fi-	2.c\	fi-	2.f\	fi-	2.B-X\	fi-	2.g\	fi-
2C/	-li-	.	.	.	.	.	.	.	.
.	.	4C/	-li-	4e\	-li-	4B-\	-li-	4g\	-li-
!	!	!LO:LB:g=original	!	!	!	!	!	!LO:LB:g=original	!
=89	=89	=89	=89	=89	=89	=89	=89	=89	=89
2F,\	-o-	2F\	-o-	2f\	-o	2A\	-o	2a\	-o
2F\	-et	2F\	-et	2d\	et	2c\	et	2a\	et
2E\	Spi-	2E\	Spi-	2e\	Spi-	2c\	Spi-	2g\	Spi-
!LO:LB:g=original	!	!	!	!	!	!	!	!	!
=90	=90	=90	=90	=90	=90	=90	=90	=90	=90
!LO:SIC:o:t:v=takt niewidoczny	!	!	!	!	!	!	!	!	!
1.ryy	.	2.D\	-ri-	2.Bn\	-ri-	2.f\	-ri-	2.bn\	-ri-
.	.	4D\	-tu-	4d\	-tu-	4f\	-tu-	4b\	-tu-
!	!	!	!	!	!	!	!	!LO:SIC:o:t:v=wykreślona kreska taktowa	!
.	.	2C\	-i	2e\	-i	2e\	-i	2cc\	-i
!LO:LB:g=original	!	!	!	!	!	!	!	!	!
=91	=91	=91	=91	=91	=91	=91	=91	=91	=91
2F\	Sanc-	2F\	Sanc-	(2f\	Sanc-	(4d\	San-	2a\	Sanc-
.	.	.	.	.	.	4c\)	.	.	.
1G\	.	1G\	.	1d\)	.	2c\	.	1g\	.
!	!	!	!	!	!	!LO:TX:b:t=Verte.	!	!	!
.	.	.	.	.	.	2Bn\	.	.	.
!	!	!	!	!LO:LB:g=original	!	!LO:PB:g=original	!	!	!
=92	=92	=92	=92	=92	=92	=92	=92	=92	=92
2C,/	-to	2C/	-to	2e\	-to	2c\	-cto	2g\	-to
2C/	Si-	2C/	Si-	(4e\	Si-	(4c\	Si-	2g\	Si-
.	.	.	.	4d\)	.	4d\)	.	.	.
2C/	-cut	2C/	-cut	(4c\	-cut	(4e\	-cut	2g\	-cut
.	.	.	.	4e\)	.	4c\)	.	.	.
=93	=93	=93	=93	=93	=93	=93	=93	=93	=93
2.C/	e-	2.C/	e-	2.d\	e-	2.d\	e-	2.f\	e-
4C/	-rat	4C/	-rat	4c\	-rat	4e\	-rat	4e\	-rat
4BBn/	in	4BBn/	in	4B-\	in	4f\	in	4d\	in
4BB/	prin-	4BB/	prin-	4d\	prin-	4d\	prin-	4g\	prin-
=94	=94	=94	=94	=94	=94	=94	=94	=94	=94
!	!	!	!	!	!	!LO:SIC:o:t:v=wykreślona kreska taktowa	!	!	!
2.C/	-ci-	2.C/	-ci-	2.e\	-ci-	2.e\	-ci-	2.g\	-ci-
4D/	-pi-	4D/	-pi-	4f\	-pi-	4d\	-pi-	4f\	-pi-
2E/	-o	2E/	-o	2g\	-o	2c\	-o	2e\	-o
!	!	!LO:LB:g=original	!	!	!	!	!	!LO:LB:g=original	!
=95	=95	=95	=95	=95	=95	=95	=95	=95	=95
2F#X\	et	2F#X\	et	2A\	et	2d\	et	2a\	et
2F#\	nunc	2F#\	nunc	2d\	nunc	2d\	nunc	2a\	nunc
2F#\	et	2F#\	et	2A\	et	(4c\	et	2a\	et
.	.	.	.	.	.	4d\)	.	.	.
=96	=96	=96	=96	=96	=96	=96	=96	=96	=96
2G\	Sem-	2G\	Sem-	2B-\	Sem-	2d\	Sem-	2g\	Sem-
2G\	-per	2G\	-per	2B-\	-per	2d\	-per	2g\	-per
4Fn\	et	4Fn\	et	4G/	et	4d\	et	4d\	et
4F\	in	4F\	in	4G/	in	4d\	in	4d\	in
!	!	!	!	!LO:LB:g=original	!	!LO:LB:g=original	!	!	!
=97	=97	=97	=97	=97	=97	=97	=97	=97	=97
2.E\	Sae-	2.E\	Sae-	2G/	Sae-	2c\	Sae-	2.e\	Sae-
.	.	.	.	4G/	-cu-	4c\	-cu-	.	.
4D/	-cu-	4E\	-cu-	4G/	-la	4c\	-la	4e\	-cu-
2C/	-la	2C/	-la	4G/	Sae-	4c\	Sae-	2e\	-la
.	.	.	.	4G/	-cu-	4c\	-cu-	.	.
=98	=98	=98	=98	=98	=98	=98	=98	=98	=98
*	*ij	*	*ij	*	*	*	*	*	*
2F\	Sae-	2F\	Sae-	2A\	-lo-	2c\	-lo-	2c\	Sae-
4F\	-cu-	4F\	-cu-	2A\	-rum	2c\	-rum	4c\	-cu-
4F\	-la	4F\	-la	.	.	.	.	4c\	-la
*	*Xij	*	*Xij	*	*ij	*	*	*	*
4F\	Sae-	4F\	Sae-	4A\	Sae-	4c\	et	4c\	Sae-
4E\	-cu-	4F\	-cu-	4A\	-cu-	4c\	in	4c\	-cu-
=99	=99	=99	=99	=99	=99	=99	=99	=99	=99
2D\	-lo-	2D\	-lo-	2A\	-la	2d\	Sae-	2f\	-lo-
2D,\	-rum	2D\	-rum	4A\	Sae-	4d\	-cu-	2f\	-rum
.	.	.	.	4A\	-cu-	4d\	-la	.	.
2D\	in	4D\	et	4A\	-lo-	4d\	Sae-	4f\	et
.	.	4D\	in	4A\	-rum	4d\	-cu-	4f\	in
!	!	!LO:LB:g=original	!	!	!	!	!	!LO:LB:g=original	!
=100	=100	=100	=100	=100	=100	=100	=100	=100	=100
*	*ij	*	*	*	*	*	*	*	*
2G\	Sae-	2G\	Sae-	2B-\	Sae-	2d\	-lo-	2d\	Sae-
4G\	-cu-	4G\	-cu-	2B-\	-cu-	2d\	-rum	4d\	-cu-
4G,\	-la	4G\	-la	.	.	.	.	4d\	-la
4G\	Sae-	4G\	Sae-	4B-\	-la	4d\	/Sae-	4d\	Sae-
4F\	-cu-	4G\	-cu-	4B-\	Sae-	4d\	-cu-	4d\	-cu-
=101	=101	=101	=101	=101	=101	=101	=101	=101	=101
2E\	-lo-	2E\	-lo-	2B-\	-cu-	2e\	-la	2g\	-lo-
2E,\	-rum	2E\	-rum	4B-\	-lo-	4e\	Sae-	2g\	-rum
.	.	.	.	4B-\	-rum	4e\	-cu-	.	.
*	*Xij	*	*ij	*	*	*	*	*	*ij
2E\	in-	4E\	Sae-	4B-\	Sae-	4e\	-lo-	4g\	Sae-
.	.	4E\	-cu-	4B-\	-cu-	4e\	-rum	4g\	-cu-
!LO:PB:g=original	!	!	!	!	!	!LO:LB:g=original	!	!	!
=102	=102	=102	=102	=102	=102	=102	=102	=102	=102
2A\	-Sae-	2A\	-la	2c\	-lo-	2e\	Sae-	2e\	-la
4A\	-cu-	4A\	Sae-	2c\	-rum	2e\	-cu-	4e\	Sae-
4A\	-la	4A\	-cu-	.	.	.	.	4e\	-cu-
*	*	*	*	*	*Xij	*	*	*	*
4A\	Sae-	4A\	-lo-	4c\	et	4e\	-la	4e\	-lo-
4G\	-cu-	4A\	-rum	4c\	in	4e\	Sae-	4e\	-rum
!	!	!	!	!LO:LB:g=original	!	!	!	!	!
=103	=103	=103	=103	=103	=103	=103	=103	=103	=103
2F\	-lo-	2F\	Sae-	2c\	Sae-	2f\	-cu-	2a\	Sae-
2F,\	-rum	2F\	-cu-	4c\	-cu-	4f\	-lo-	2a\	-cu-
.	.	.	.	4c\	-la	4f\	-rum	.	.
*	*ij	*	*	*	*	*	*	*	*
2F\	in	4F\	-la	4c\	Sae-	4f\	Sae	4a\	-la
.	.	4F\	sae-	4c\	-cu-	4f\	cu-	4a\	Sae-
=104	=104	=104	=104	=104	=104	=104	=104	=104	=104
2Bn\	Sae-	2Bn\	-cu-	2d\	-lo-	2d\	-lo-	2g\	-cu-
4B\	-cu-	4B\	-lo-	2d\	-rum	2d\	-rum/	4g\	-lo-
4B\	-la	4B\	-rum	.	.	.	.	4g\	-rum
*	*	*	*	*	*	*	*	*	*Xij
4B\	Sae-	4B\	Sae-	4d\	Sae-	4d\	Sae-	4g\	Sae-
4B\	-cu-	4B\	-cu-	4d\	-cu-	4d\	-cu-	4g\	-cu-
!	!	!LO:LB:g=original	!	!	!	!	!	!LO:LB:g=original	!
=105	=105	=105	=105	=105	=105	=105	=105	=105	=105
2c\	-lo-	2c\	-lo-	(2.g\	-lo-	(2.e\	-lo-	(2.e\	-lo-
(4C/	.	(4C/	.	.	.	.	.	.	.
4D/)	.	4D/)	.	4f\)	.	4d\)	.	4f\)	.
2E\	-rum	2E\	-rum	2e\	-rum	2c\	-rum	2g\	-rum
*	*Xij	*	*Xij	*	*	*	*	*	*
=106	=106	=106	=106	=106	=106	=106	=106	=106	=106
2F\	a-	(2F\	A-	(2d\	A-	2f\	A-	(2a\	A-
2G\	.	1G\)	.	2c\)	.	1d\	.	1g\)	.
2GG/	.	.	.	2Bn\	.	.	.	.	.
=107	=107	=107	=107	=107	=107	=107	=107	=107	=107
!LO:TX:a:t=Rorate da Capo.	!	!LO:TX:a:t=Rorate da Capo.	!	!LO:TX:a:t=Rorate da Capo	!	!LO:TX:b:t=Rorate da Capo.	!	!LO:TX:a:t=Rorate da Capo.	!
0.C/;	-men	1.C/	-men	1.c\	-men	1.e\	-men	1g\	-men
.	.	.	.	.	.	.	.	2ryy	.
=108	=108	=108	=108	=108	=108	=108	=108	=108	=108
!	!	!LO:SIC:o:t:v=dodatkowy takt w basso ripieno	!	!LO:SIC:o:t:v=dodatkowy takt w basso ripieno	!	!LO:SIC:o:t:v=dodatkowy takt w basso ripieno	!	!LO:SIC:o:t:v=dodatkowy takt w basso ripieno	!
.	.	1.ryy	.	1.ryy	.	1.ryy	.	1.ryy	.
==	==	==	==	==	==	==	==	==	==
*-	*-	*-	*-	*-	*-	*-	*-	*-	*-
!!!system-decoration: [(s1,s2,s3,s4,s5)]
!!!RDF**kern: > = above
!!!RDF**kern: < = below
!!!EED: Leszek Kubiak
!!!EEV: 2021-03-02
!!!ENC: Berenika Jozajtis
!!!END: 2021-02-17
